X: 9093
T: Da Scallowa Lasses
R: reel
M: 4/4
K: Gmajor
|:eaag egdB|c2 ec gcec|eaag egdB|1 cABG A4:|2 cABG A2 Ac||
|:BE ~E2 c2 cA|d^cde fde=c|eaag egdB|1 cABG A2 Ac:|2 cABG A4||

